lib/svgs/wps.svg

<svg xmlns="http://www.w3.org/2000/svg" viewBox="0 0 20 20">
    <path fill="#000" fill-rule="evenodd" d="M17.976574,5.45261857 C17.9140514,5.09055462 17.4768731,5.06026673 17.4768731,5.06026673 L11.7615735,5.06026673 C11.3554165,5.06026673 11.1993499,5.60359445 11.1993499,5.60359445 L7.79514724,12.605661 C7.63892073,12.9377461 7.48285413,12.605661 7.48285413,12.605661 L4.73441897,7.17300184 C4.54701113,6.90133798 4.73441897,6.78065 4.73441897,6.78065 L7.04551586,6.78065 C7.45151289,6.84107125 7.54521681,7.17300184 7.54521681,7.17300184 L8.70084521,9.55740082 L9.7002471,7.41453234 L8.79454913,5.5431732 C8.60714129,5.06026673 8.20114426,5 8.20114426,5 L2.57954858,5 C1.70503195,5.33193059 2.07984764,5.9959463 2.07984764,5.9959463 L6.73322276,15.4428331 C7.26410504,16.1369821 7.63892073,15.9861608 7.63892073,15.9861608 C8.13862168,15.9861608 8.45091478,15.4428331 8.45091478,15.4428331 L12.5110449,7.11273512 C12.6672714,6.78065 12.8545194,6.78065 12.8545194,6.78065 L15.3218428,6.78065 C15.5092506,6.81078336 15.4155467,7.11273512 15.4155467,7.11273512 L12.6047489,12.6962156 C12.4798636,12.9981674 12.2611145,12.6962156 12.2611145,12.6962156 L11.3554165,10.7344564 L10.3560146,12.605661 C10.293652,12.7566369 10.3560146,12.9377461 10.3560146,12.9377461 L11.605347,15.4428331 C12.5735675,16.5594673 13.2605164,15.5030998 13.2605164,15.5030998 L17.8828701,6.08650092 C18.0702779,5.75457033 17.976574,5.45261857 17.976574,5.45261857"/>
</svg>

<svg xmlns="http://www.w3.org/2000/svg" viewBox="0 0 20 20">
    <path fill="#000" fill-rule="evenodd" d="M17.977 5.453c-.063-.362-.5-.393-.5-.393h-5.715c-.407 0-.563.544-.563.544l-3.404 7.002c-.156.332-.312 0-.312 0L4.734 7.173c-.187-.272 0-.392 0-.392h2.312c.406.06.5.392.5.392L8.7 9.557l1-2.142-.906-1.872C8.607 5.06 8.2 5 8.2 5H2.58c-.875.332-.5.996-.5.996l4.653 9.447c.531.694.906.543.906.543.5 0 .812-.543.812-.543l4.06-8.33c.156-.332.344-.332.344-.332h2.467c.187.03.094.332.094.332l-2.811 5.583c-.125.302-.344 0-.344 0l-.906-1.962-.999 1.872a.536.536 0 0 0 0 .332l1.25 2.505c.968 1.116 1.655.06 1.655.06l4.622-9.416c.187-.332.094-.634.094-.634z"/>
</svg>
